X: 100413
M: 6/8
L: 1/8
K: Em
|:\
vE3- EFG | B3- B^cd | E3- E(FG) | BAG FED |\
E3- EFG | B2^c d2e | fgf efe | d^cB AGF :|
|:\
(v.E2.e) (.e2.g) | fe^d e3 | (.E2.e) (.e2.g) | fga gfe |\


